X: 109
T:Bonny James Campbell
M:4/4
L:1/8
Q:120
C:Scottish
S:Transcribed from Jay Ungar Version by S.C.
R:March
K:D
|:A2B2d2 dd|e-dBA d-edB|A2 AB d2 df|e-d B2 A4:|!
({f}a2 a2) f2 ((3faf| e)dBA d-edB|A2 AB d2df|e-dB2A4:|!
A,2-B,2 D2 DD|E-DB,A, D-EDB,|A,2A,-B, D2DF|E-DB,2 A,4:|!
A2-A2 F2 (3FAF|E-DB,A, D-EDB,|A,2 A,B, D2 DF|E-D B,2A,4:|
